packages/sources/icons/src/vitamix/money-dollar-box-fill.svg

<svg width="16" height="16" viewBox="0 0 16 16" fill="none" xmlns="http://www.w3.org/2000/svg">
<path fill-rule="evenodd" clip-rule="evenodd" d="M14 2H2.00001C1.63182 2 1.33334 2.29848 1.33334 2.66667V13.3333C1.33334 13.7015 1.63182 14 2.00001 14H14C14.3682 14 14.6667 13.7015 14.6667 13.3333V2.66667C14.6667 2.29848 14.3682 2 14 2ZM5.66668 10.6667V9.33333H9.33334C9.51744 9.33333 9.66668 9.18409 9.66668 9C9.66668 8.81591 9.51744 8.66667 9.33334 8.66667H6.66668C5.7462 8.66667 5.00001 7.92047 5.00001 7C5.00001 6.07953 5.7462 5.33333 6.66668 5.33333H7.33334V4H8.66668V5.33333H10.3333V6.66667H6.66668C6.48258 6.66667 6.33334 6.81591 6.33334 7C6.33334 7.18409 6.48258 7.33333 6.66668 7.33333H9.33334C10.2538 7.33333 11 8.07953 11 9C11 9.92048 10.2538 10.6667 9.33334 10.6667H8.66668V12H7.33334V10.6667H5.66668Z" fill="#001018"/>
</svg>

<svg width="16" height="16" fill="none" xmlns="http://www.w3.org/2000/svg"><path fill-rule="evenodd" clip-rule="evenodd" d="M14 2H2a.667.667 0 0 0-.667.667v10.666c0 .368.299.667.667.667h12a.667.667 0 0 0 .667-.667V2.667A.667.667 0 0 0 14 2zm-8.333 8.667V9.333h3.666a.333.333 0 1 0 0-.666H6.667a1.667 1.667 0 0 1 0-3.334h.666V4h1.334v1.333h1.666v1.334H6.667a.333.333 0 1 0 0 .666h2.666a1.667 1.667 0 0 1 0 3.334h-.666V12H7.333v-1.333H5.667z" fill="#001018"/></svg>
